static/img/kroki/6f5902cad6cae2dc2ac2c60771aa3359.svg

<?xml version="1.0" encoding="us-ascii" standalone="no"?><svg xmlns="http://www.w3.org/2000/svg" xmlns:xlink="http://www.w3.org/1999/xlink" contentStyleType="text/css" height="374px" preserveAspectRatio="none" style="width:401px;height:374px;" version="1.1" viewBox="0 0 401 374" width="401px" zoomAndPan="magnify"><defs/><g><!--class digitalocean_floating_ip--><g id="elem_digitalocean_floating_ip"><rect codeLine="23" fill="#3D176E" height="39.7891" id="digitalocean_floating_ip" rx="2.5" ry="2.5" style="stroke:#000D19;stroke-width:0.5;" width="240" x="103.5" y="328.58"/><ellipse cx="118.5" cy="348.4745" fill="#ADD1B2" rx="11" ry="11" style="stroke:#181818;stroke-width:1.0;"/><path d="M121.4688,354.1152 Q120.8906,354.412 120.25,354.5527 Q119.6094,354.7089 118.9063,354.7089 Q116.4063,354.7089 115.0781,353.0683 Q113.7656,351.412 113.7656,348.287 Q113.7656,345.162 115.0781,343.5058 Q116.4063,341.8495 118.9063,341.8495 Q119.6094,341.8495 120.25,342.0058 Q120.9063,342.162 121.4688,342.4589 L121.4688,345.1777 Q120.8438,344.5995 120.25,344.3339 Q119.6563,344.0527 119.0313,344.0527 Q117.6875,344.0527 117,345.1308 Q116.3125,346.1933 116.3125,348.287 Q116.3125,350.3808 117,351.4589 Q117.6875,352.5214 119.0313,352.5214 Q119.6563,352.5214 120.25,352.2558 Q120.8438,351.9745 121.4688,351.3964 L121.4688,354.1152 Z " fill="#000000"/><text fill="#D9B8FF" font-family="Helvetica" font-size="17" lengthAdjust="spacing" textLength="198" x="137.5" y="354.3598">digitalocean_floating_ip</text></g><!--class digitalocean_resource--><g id="elem_digitalocean_resource"><rect codeLine="26" fill="#3D176E" height="39.7891" id="digitalocean_resource" rx="2.5" ry="2.5" style="stroke:#000D19;stroke-width:0.5;" width="223" x="7" y="167.79"/><ellipse cx="22" cy="187.6845" fill="#ADD1B2" rx="11" ry="11" style="stroke:#181818;stroke-width:1.0;"/><path d="M24.9688,193.3252 Q24.3906,193.622 23.75,193.7627 Q23.1094,193.9189 22.4063,193.9189 Q19.9063,193.9189 18.5781,192.2783 Q17.2656,190.622 17.2656,187.497 Q17.2656,184.372 18.5781,182.7158 Q19.9063,181.0595 22.4063,181.0595 Q23.1094,181.0595 23.75,181.2158 Q24.4063,181.372 24.9688,181.6689 L24.9688,184.3877 Q24.3438,183.8095 23.75,183.5439 Q23.1563,183.2627 22.5313,183.2627 Q21.1875,183.2627 20.5,184.3408 Q19.8125,185.4033 19.8125,187.497 Q19.8125,189.5908 20.5,190.6689 Q21.1875,191.7314 22.5313,191.7314 Q23.1563,191.7314 23.75,191.4658 Q24.3438,191.1845 24.9688,190.6064 L24.9688,193.3252 Z " fill="#000000"/><text fill="#D9B8FF" font-family="Helvetica" font-size="17" lengthAdjust="spacing" textLength="181" x="41" y="193.5698">digitalocean_resource</text></g><!--class ip_address--><g id="elem_ip_address"><rect codeLine="29" fill="#3D176E" height="39.7891" id="ip_address" rx="2.5" ry="2.5" style="stroke:#000D19;stroke-width:0.5;" width="129" x="265" y="167.79"/><ellipse cx="280" cy="187.6845" fill="#ADD1B2" rx="11" ry="11" style="stroke:#181818;stroke-width:1.0;"/><path d="M282.9688,193.3252 Q282.3906,193.622 281.75,193.7627 Q281.1094,193.9189 280.4063,193.9189 Q277.9063,193.9189 276.5781,192.2783 Q275.2656,190.622 275.2656,187.497 Q275.2656,184.372 276.5781,182.7158 Q277.9063,181.0595 280.4063,181.0595 Q281.1094,181.0595 281.75,181.2158 Q282.4063,181.372 282.9688,181.6689 L282.9688,184.3877 Q282.3438,183.8095 281.75,183.5439 Q281.1563,183.2627 280.5313,183.2627 Q279.1875,183.2627 278.5,184.3408 Q277.8125,185.4033 277.8125,187.497 Q277.8125,189.5908 278.5,190.6689 Q279.1875,191.7314 280.5313,191.7314 Q281.1563,191.7314 281.75,191.4658 Q282.3438,191.1845 282.9688,190.6064 L282.9688,193.3252 Z " fill="#000000"/><text fill="#D9B8FF" font-family="Helvetica" font-size="17" lengthAdjust="spacing" textLength="87" x="299" y="193.5698">ip_address</text></g><!--class resource--><g id="elem_resource"><rect codeLine="32" fill="#3D176E" height="39.7891" id="resource" rx="2.5" ry="2.5" style="stroke:#000D19;stroke-width:0.5;" width="113" x="167" y="7"/><ellipse cx="182" cy="26.8945" fill="#ADD1B2" rx="11" ry="11" style="stroke:#181818;stroke-width:1.0;"/><path d="M184.9688,32.5352 Q184.3906,32.832 183.75,32.9727 Q183.1094,33.1289 182.4063,33.1289 Q179.9063,33.1289 178.5781,31.4883 Q177.2656,29.832 177.2656,26.707 Q177.2656,23.582 178.5781,21.9258 Q179.9063,20.2695 182.4063,20.2695 Q183.1094,20.2695 183.75,20.4258 Q184.4063,20.582 184.9688,20.8789 L184.9688,23.5977 Q184.3438,23.0195 183.75,22.7539 Q183.1563,22.4727 182.5313,22.4727 Q181.1875,22.4727 180.5,23.5508 Q179.8125,24.6133 179.8125,26.707 Q179.8125,28.8008 180.5,29.8789 Q181.1875,30.9414 182.5313,30.9414 Q183.1563,30.9414 183.75,30.6758 Q184.3438,30.3945 184.9688,29.8164 L184.9688,32.5352 Z " fill="#000000"/><text fill="#D9B8FF" font-family="Helvetica" font-size="17" lengthAdjust="spacing" textLength="71" x="201" y="32.7798">resource</text></g><!--reverse link digitalocean_resource to digitalocean_floating_ip--><g id="link_digitalocean_resource_digitalocean_floating_ip"><path codeLine="35" d="M141.0978,222.8546 C161.2778,253.3746 190.58,297.69 210.79,328.25 " fill="none" id="digitalocean_resource-backto-digitalocean_floating_ip" style="stroke:#FFAF37;stroke-width:2.0;"/><polygon fill="none" points="131.17,207.84,136.0929,226.1639,146.1026,219.5454,131.17,207.84" style="stroke:#FFAF37;stroke-width:2.0;"/></g><!--reverse link ip_address to digitalocean_floating_ip--><g id="link_ip_address_digitalocean_floating_ip"><path codeLine="36" d="M306.7175,222.8116 C286.3475,253.3316 256.73,297.69 236.33,328.25 " fill="none" id="ip_address-backto-digitalocean_floating_ip" style="stroke:#FFAF37;stroke-width:2.0;"/><polygon fill="none" points="316.71,207.84,301.7269,219.4808,311.708,226.1425,316.71,207.84" style="stroke:#FFAF37;stroke-width:2.0;"/></g><!--reverse link resource to digitalocean_resource--><g id="link_resource_digitalocean_resource"><path codeLine="37" d="M200.9022,62.0646 C180.7222,92.5846 151.42,136.9 131.21,167.46 " fill="none" id="resource-backto-digitalocean_resource" style="stroke:#FFAF37;stroke-width:2.0;"/><polygon fill="none" points="210.83,47.05,195.8974,58.7554,205.9071,65.3739,210.83,47.05" style="stroke:#FFAF37;stroke-width:2.0;"/></g><!--reverse link resource to ip_address--><g id="link_resource_ip_address"><path codeLine="38" d="M246.2825,62.0216 C266.6525,92.5416 296.27,136.9 316.67,167.46 " fill="none" id="resource-backto-ip_address" style="stroke:#FFAF37;stroke-width:2.0;"/><polygon fill="none" points="236.29,47.05,241.292,65.3525,251.2731,58.6908,236.29,47.05" style="stroke:#FFAF37;stroke-width:2.0;"/></g><!--SRC=[XP9DQy9048Rl-HKBdeLOQLNeHGEblKYflOSnEvii9hjXTgpOZ__UfDPsJKnodVVX_LWsqn855YKVHO755ia5RgTD2GI5M1BPGsHpIsAa5AZfh2a-MCE3m1eA58-Olo7h19h4QwQJdK7dn8qdhI3PfMJtHfxicS2uIaB37XNbuDoIcVHsp-YLaOljNAacsJGTJULaTeSjp994-aN2C9IJHHCPZEhT_KTiz3kAYVzeQylOgjcA-A5wMzQ4Lx8rzAntTdm6ARL9nQrtUpbr8eDqSTza8EsXfXNapeznZ8IMZoL6hLMuc4irkme_TS51KZ-Ta3hL3BbD44oiSWjSXSUw51z1y7MD8NHsJmdwW2xZQYFLFy-xNfBNJUu_n-DnPud0CnuW-npFMXFwTm- -0G00]--></g></svg>

<svg xmlns="http://www.w3.org/2000/svg" width="401" height="374" viewBox="0 0 401 374"><rect width="240" height="39.789" x="103.5" y="328.58" fill="#3D176E" rx="2.5" ry="2.5" style="stroke:#000d19;stroke-width:.5"/><circle cx="118.5" cy="348.474" r="11" fill="#ADD1B2" style="stroke:#181818;stroke-width:1"/><path d="M121.469 354.115q-.578.297-1.219.438-.64.156-1.344.156-2.5 0-3.828-1.64-1.312-1.657-1.312-4.782t1.312-4.781q1.328-1.656 3.828-1.656.703 0 1.344.156.656.156 1.219.453v2.719q-.625-.579-1.219-.844-.594-.281-1.219-.281-1.344 0-2.031 1.078-.687 1.062-.687 3.156t.687 3.172q.688 1.062 2.031 1.062.625 0 1.219-.265.594-.281 1.219-.86z"/><text x="137.5" y="354.36" fill="#D9B8FF" font-family="Helvetica" font-size="17" textLength="198">digitalocean_floating_ip</text><rect width="223" height="39.789" x="7" y="167.79" fill="#3D176E" rx="2.5" ry="2.5" style="stroke:#000d19;stroke-width:.5"/><circle cx="22" cy="187.685" r="11" fill="#ADD1B2" style="stroke:#181818;stroke-width:1"/><path d="M24.969 193.325q-.578.297-1.219.438-.64.156-1.344.156-2.5 0-3.828-1.64-1.312-1.657-1.312-4.782t1.312-4.781q1.328-1.656 3.828-1.656.703 0 1.344.156.656.156 1.219.453v2.719q-.625-.578-1.219-.844-.594-.281-1.219-.281-1.343 0-2.031 1.078-.687 1.062-.687 3.156t.687 3.172q.688 1.062 2.031 1.062.625 0 1.219-.265.594-.281 1.219-.86z"/><text x="41" y="193.57" fill="#D9B8FF" font-family="Helvetica" font-size="17" textLength="181">digitalocean_resource</text><rect width="129" height="39.789" x="265" y="167.79" fill="#3D176E" rx="2.5" ry="2.5" style="stroke:#000d19;stroke-width:.5"/><circle cx="280" cy="187.685" r="11" fill="#ADD1B2" style="stroke:#181818;stroke-width:1"/><path d="M282.969 193.325q-.578.297-1.219.438-.64.156-1.344.156-2.5 0-3.828-1.64-1.312-1.657-1.312-4.782t1.312-4.781q1.328-1.656 3.828-1.656.703 0 1.344.156.656.156 1.219.453v2.719q-.625-.578-1.219-.844-.594-.281-1.219-.281-1.344 0-2.031 1.078-.687 1.062-.687 3.156t.687 3.172q.688 1.062 2.031 1.062.625 0 1.219-.265.594-.281 1.219-.86z"/><text x="299" y="193.57" fill="#D9B8FF" font-family="Helvetica" font-size="17" textLength="87">ip_address</text><rect width="113" height="39.789" x="167" y="7" fill="#3D176E" rx="2.5" ry="2.5" style="stroke:#000d19;stroke-width:.5"/><circle cx="182" cy="26.895" r="11" fill="#ADD1B2" style="stroke:#181818;stroke-width:1"/><path d="M184.969 32.535q-.578.297-1.219.438-.64.156-1.344.156-2.5 0-3.828-1.64-1.312-1.657-1.312-4.782t1.312-4.781q1.328-1.656 3.828-1.656.703 0 1.344.156.656.156 1.219.453v2.719q-.625-.578-1.219-.844-.594-.281-1.219-.281-1.344 0-2.031 1.078-.687 1.062-.687 3.156t.687 3.172q.688 1.062 2.031 1.062.625 0 1.219-.265.594-.281 1.219-.86z"/><text x="201" y="32.78" fill="#D9B8FF" font-family="Helvetica" font-size="17" textLength="71">resource</text><path fill="none" d="M141.098 222.855c20.18 30.52 49.482 74.835 69.692 105.395m-79.62-120.41 4.923 18.324 10.01-6.619zm175.548 14.972c-20.37 30.52-49.988 74.878-70.388 105.438m80.38-120.41-14.983 11.64 9.981 6.663zM200.902 62.065c-20.18 30.52-49.482 74.835-69.692 105.395m79.62-120.41-14.933 11.705 10.01 6.619zm35.453 14.972c20.37 30.52 49.987 74.878 70.387 105.438M236.29 47.05l5.002 18.303 9.981-6.662z" style="stroke:#ffaf37;stroke-width:2"/></svg>
